X:1
T:NOTTE DI NATALE
T:Mariano Garau
T:Per il Coro "a cappella" de Cartagena (España) 
T:NOCHE DE NAVIDAD
C:Mariano Garau
Z:Silvio Tessi
%%score [ 1 2 3 4 ]
L:1/8
Q:1/4=55
M:4/4
K:Ab
V:1 treble nm="Soprano" snm="S"
V:2 treble nm="Alto 1" snm="A1"
V:3 treble nm="Alto 2" snm="A2"
V:4 bass transpose=-12 nm="Basso" snm="B"
V:1
!mf! c2 Bc e2 c2 | BAGA c2 B2 | c2 BA _F2 F2 | _FF/F/ _GF E2 E2 | EEFG A2 AA | %5
w: No- che * strel- las,|no- che de mi- ste- rio...|ar- den los fue- gos,|vi- gi- lan los pa- sto- res|sus o- ve- jas, de- ba- jo|
 (BA)GA c2 !fermata!B2 |!mf! ccBc e2 c2 | BAGA c2 B2 | c2 BA _F2 FF | _FF_GF E4 | EE (FG) AAAA | %11
w: del _ cie- lo ne- gro|se- ñas re- pen- ti- nas,|fúl- gi- * splen- do- res|hien- den el ai- re, di-|fun- den un cla- ror,|cuan- do del _ al- * Co- ro|
 BA (GA) c2 !fermata!B2 | e2 dc B2 AB | c2 c2- c3 c | cBAB (B2 E2) | e2 dc BBAB | c2 c2- c3 c | %17
w: E- sco- gi- do can- ta:|"Glo- ria a Diós en el|Cie- lo! _ Na-|ció el Sal- va- dor; _|paz en la tier- ra a los|hom- bres, _ en|
 cBAB B4 |[Q:1/4=100] !fermata!A2 z e!mf! ecBA | dBAG (A2 E)E | F2 Ad (GA)BG | E2 E2- E4 | %22
w: e- sta No- che San-|ta"! Los dó- ci- les pa-|sto- res con ar- dor _ _|ni- das las man- * sas o-|ve- jas, _|
 ecBA dBAG | AAEE F2 Ad | GABc A2 A2- | A2 Bc d2 dd | dcde c2 c2- | c2 de ffff | gg fg/g/ e2 e2- | %29
w: lle- gan al re- cién na- ci- do|Re- den- tor to- can- do a-|le- gres chi- ri- mí- as.|_ _ na cla- ra e-|strel- la re- lu- cien- te|_ _ ra guí- a a los|Re- yes ha- cia la ru- ta|
 e2!mf! z c (ec)BA | dBAG A2 EE |"^Rall." F2 Ad GABc | A8 |] %33
w: _ de tier- * ras le-|ja- nas del O- rien- * la|cue- va del Ni- ño Re- den-||
V:2
!mf! E2 DE F2 E2 | DCEF _F2 F2 | E2 DC D2 (DC) | B,B,/B,/ B,B, C2 C2 | CCCC C2 CC | %5
w: No- che * strel- las,|no- che de mi- ste- rio...|ar- den los fue- gos, _|vi- gi- lan los pa- sto- res|sus o- ve- jas, de- ba- jo|
 C2 CC C2 !fermata!D2 |!mf! EEDE F2 E2 | DCEF _F2 F2 | E2 DC D2 DC | B,B,B,B, C4 | CC C2 CCCC | %11
w: del cie- lo ne- gro|se- ñas re- pen- ti- nas,|fúl- gi- * splen- do- res|hien- den el ai- re, di-|fun- den un cla- ror,|cuan- do del al- * Co- ro|
 CC CC C2 !fermata!D2 | A2 AA F2 FF | G2 G2- G3 G | FFFF E4 | A2 AA FFFF | G2 G2- G3 G | FFFF G4 | %18
w: E- sco- gi- do can- ta:|"Glo- ria a Diós en el|Cie- lo! _ Na-|ció el Sal- va- dor;|paz en la tier- ra a los|hom- bres, _ en|e- sta No- che San-|
 !fermata!A2 z C!mf! CCDE | FFED C2- CC | D2 DD B,2 B,B, | C2 C2- C4 | CCDE FFED | CCCC D2 DD | %24
w: ta"! Los dó- ci- les pa-|sto- res con ar- dor _ _|ni- das las man- sas o-|ve- jas, _|lle- gan al re- cién na- ci- do|Re- den- tor to- can- do a-|
 DDDD C2 C2- | C2!<(! CC F2 FF | GGGG E2 E2-!<)! | E2 DC DDDD | DD DD/D/ C2 C2- | %29
w: le- gres chi- ri- mí- as.|_ _ na cla- ra e-|strel- la re- lu- cien- te|_ _ ra guí- a a los|Re- yes ru- cia la ru- ta|
 C2!mf! z C C2 DE | FFED C2 CC | D2 DD DDDD |"^Ad ogni strofa si ripete il ritornello" C8 |] %33
w: _ de tier- ras le-|ja- nas del O- rien- * la|cue- va del Ni- ño Re- den-||
V:3
 z8 | z8 | z8 | z8 | z8 | z8 | z8 | z8 | z8 | z8 | z8 | z8 | C2 CC D2 DD | E2 E2- E3 E | =DDDD E4 | %15
w: ||||||||||||"Glo- ria a Diós en el|Cie- lo! _ Na-|ció el Sal- va- dor;|
 C2 CC DDDD | E2 E2- E3 E | =DDDD D4 | !fermata!C2 z2 z4 | z8 | z8 | z8 | z8 | z8 | z8 | z8 | %26
w: paz en la tier- ra a los|hom- bres, _ en|e- sta No- che San-|||||||||
!<(! z8!<)! | z8 | z8 | z8 | z8 | z8 | z8 |] %33
w: |||||||
V:4
!mf! A,2 A,A, A,2 A,2 | A,A,A,A, A,2 A,2 | A,2 A,A, A,2 A,2 | A,A,/A,/ A,A, A,2 A,2 | %4
w: No- che * strel- las,|no- che de mi- ste- rio...|ar- den los fue- gos,|vi- gi- lan los pa- sto- res|
 A,A,A,G, F,2 F,F, | F,2 F,F, _F,2 !fermata!E,2 |!mf! A,A,A,A, A,2 A,2 | A,A,A,A, A,2 A,2 | %8
w: sus o- ve- jas, de- ba- jo|del cie- lo ne- gro|se- ñas re- pen- ti- nas,|fúl- gi- * splen- do- res|
 A,2 A,A, A,2 A,A, | A,A,A,A, A,4 | A,A, (A,G,) F,F,F,F, | F, F,F,F, _F,2 !fermata!E,2 | %12
w: hien- den el ai- re, di-|fun- den un cla- ror,|cuan- do del _ al- * Co- ro|E- sco- gi- do can- ta:|
 A,2 A,A, A,2 A,A, | A,2 A,2- A,3 A, | A,A,A,A, G,4 | A,2 A,A, A,A,A,A, | A,2 A,2- A,3 A, | %17
w: "Glo- ria a Diós en el|Cie- lo! _ Na-|ció el Sal- va- dor;|paz en la tier- ra a los|hom- bres, _ en|
 A,A,A,A, A,4 | !fermata!A,2 z A,!mf! A,A,A,A, | A,A,A,A, A,2- A,A, | D,2 D,D, E,2 E,E, | %21
w: e- sta No- che San-|ta"! Los dó- ci- les pa-|sto- res con ar- dor _ _|ni- das las man- sas o-|
 A,2 A,2- A,4 | A,A,A,A, A,A,A,A, | A,A,A,A, D,2 D,D, | E,E,E,E, F,2 F,2- | F,2!<(! F,F, D,2 D,D, | %26
w: ve- jas, _|lle- gan al re- cién na- ci- do|Re- den- tor to- can- do a-|le- gres chi- ri- mí- as.|_ _ na cla- ra e-|
 E,E,E,E, A,2 A,2-!<)! | A,2 A,A, D,D,D,D, | E,E, E,E,/E,/ A,2 A,2- | A,2!mf! z A, A,2 A,A, | %30
w: strel- la re- lu- cien- te|_ _ ra guí- a a los|Re- yes ru- cia la ru- ta|_ de tier- ras le-|
 A,A,A,A, A,2 A,A, | D,2 D,D, E,E,E,E, | A,,8 |] %33
w: ja- nas del O- rien- * la|cue- va del Ni- ño Re- den-||

